!!!COM:	Japart, Jean
!!!CDT:	~1450//-~1507//
!!!OTL:	J'ay pris amours II
!!!AGN:	Song; Chanson
!!!SCT:	Jap3012
!!!SCA:	Jap3012
!!!voices:	4
**kern	**kern	**kern	**kern
*staff4	*staff3	*staff2	*staff1
*Ivox	*Ivox	*Ivox	*Ivox
*I"Bassus	*I"Tenor	*I"Contra	*I"Altus
*I'B	*I'T	*I'C	*I'A
*clefF4	*clefGv2	*clefGv2	*clefG2
*k[]	*k[]	*k[]	*k[]
*M2/1	*M2/1	*M2/1	*M2/1
*met(C|)	*met(C|)	*met(C|)	*met(C|)
=1-	=1-	=1-	=1-
!LO:TX:X=-40:Z=2:t=[In this voice the text is printed backward, signaling retrograde performance of the music.]	!	!	!
!LO:TX:X=-40:Z=18:t=Fit aries piscis in licanosypathon (downward transposition by a 12th)	!	!	!
[0D	0A	0d	0r
=2	=2	=2	=2
0D]	1A	1f	0r
.	1B	1f	.
=3	=3	=3	=3
1C	1c	1e	0a
[1D	1A	2d	.
.	.	[2f	.
=4	=4	=4	=4
1D]	1r	4f]	1a
.	.	4e	.
.	.	4d	.
.	.	4c	.
1F	1A	1d	1a
=5	=5	=5	=5
1E	2B	1e	1g
.	2c	.	.
2G	2B	1r	[1e
[2A	[2c	.	.
=6	=6	=6	=6
2A]	2c]	1c	1e]
2E	2B	.	.
1F	2A	1c	1a
.	4G	.	.
.	4F	.	.
=7	=7	=7	=7
1C	1E	1c	2g
.	.	.	2e
1D	1r	1A	2f
.	.	.	4e
.	.	.	4d
=8	=8	=8	=8
2E	1r	2G	1c
1.F	.	2.A	.
.	1A	.	1d
.	.	4G	.
.	.	2F	.
=9	=9	=9	=9
1C	2.G	1E	2.e
.	4E	.	8dL
.	.	.	8cJ
1D	1F	1r	2.B
.	.	.	4A
=10	=10	=10	=10
1C	2G	1E	2.c
.	2.c	.	.
.	.	.	4d
1r	.	2C	2e
.	4B	.	.
.	[2A	2D	2f
=11	=11	=11	=11
1AA	4A]	2E	2e
.	4G	.	.
.	4F	2.F	2.a
.	4E	.	.
1D	1F	.	.
.	.	4G	4g
.	.	4A	[2f
.	.	4B	.
=12	=12	=12	=12
1C	2.G	2c	4f]
.	.	.	4e
.	.	4B	1e
.	4F	4A	.
1BB	1D	1G	.
.	.	.	[2d
=13	=13	=13	=13
1AA	1E	1.A	2d]
.	.	.	2c#i
1r	1D	.	1d
.	.	2B	.
=14	=14	=14	=14
0C	1.G	4c	1r
.	.	4d	.
.	.	1e	.
.	.	.	1g
.	2A	4d	.
.	.	4c	.
=15	=15	=15	=15
1BB	1B	1d	0g
[1C	1G	2c	.
.	.	[2c	.
=16	=16	=16	=16
1C]	0r	2c]	1.g
.	.	4B	.
.	.	4A	.
1E	.	1G	.
.	.	.	4f
.	.	.	4e
=17	=17	=17	=17
1D	1A	1F	1f
1C	1c	2.G	1e
.	.	4E	.
=18	=18	=18	=18
2D	2B	2F	1r
2E	2c	2G	.
1F	1d	1A	1a
=19	=19	=19	=19
1E	2e	2B	2.g
.	1e	1c	.
.	.	.	4a
1E	.	.	2cc
.	4d	2d	[2b
.	4c	.	.
=20	=20	=20	=20
1E	2.B	1e	4b]
.	.	.	4a
.	.	.	4g#i
.	4A	.	4f#i
1r	1B	2.d	1g#i
.	.	4e	.
=21	=21	=21	=21
0AA	1A	2f	0a
.	.	2.e	.
.	1r	.	.
.	.	4d	.
.	.	2c	.
=22	=22	=22	=22
1GG	1d	1B	0r
[1AA	1c	1A	.
=23	=23	=23	=23
1AA]	1A	1r	1a
2AA	2c	1A	1a
2BB	[2c	.	.
=24	=24	=24	=24
2C	4c]	1A	1.a
.	4B	.	.
1.D	4A	.	.
.	4G	.	.
.	1F	1A	.
.	.	.	4g
.	.	.	4f
=25	=25	=25	=25
0C	2G	1.c	1.e
.	1A	.	.
.	4G	4B	2f
.	4F	4A	.
=26	=26	=26	=26
0r	1E	2G	1g
.	.	4F	.
.	.	4E	.
.	1F	1D	1a
=27	=27	=27	=27
0C	1G	2r	1g
.	.	1G	.
.	1C	.	[1g
.	.	2c	.
=28	=28	=28	=28
1E	2r	2B	2g]
.	2G	2c	4f
.	.	.	4e
1D	2A	1d	1f
.	2B	.	.
=29	=29	=29	=29
1C	1c	1G	1e
[1D	2.F	2r	[1d
.	.	2A	.
.	4G	.	.
=30	=30	=30	=30
1D]	2B-i	2F	2d]
.	1A	2D	1f
[1AA	.	2.F	.
.	4G	.	4e
.	4F	4G	4d
=31	=31	=31	=31
1AA]	1E	1A	0c
1C	1E	1G	.
=32	=32	=32	=32
0D	1F	1r	1r
.	1F	1F	1A
=33	=33	=33	=33
1C	0E	1G	1c
1E	.	1G	2B
.	.	.	[2c
=34	=34	=34	=34
0F	1r	0A	4c]
.	.	.	4B
.	.	.	2.d
.	[1A	.	.
.	.	.	4c
.	.	.	[2f
=35	=35	=35	=35
0r	1A]	1r	4f]
.	.	.	4e
.	.	.	4d
.	.	.	4c
.	1G#i	1d	1B
=36	=36	=36	=36
0F	1A	1.c	0A
.	1c	.	.
.	.	2d	.
=37	=37	=37	=37
1E	2c	1e	1r
.	1c	.	.
[1F	.	2c	1A
.	2B	[2f	.
=38	=38	=38	=38
1F]	1A	4f]	1.c
.	.	4e	.
.	.	2f	.
[1C	1G	[1e	.
.	.	.	2d
=39	=39	=39	=39
1C]	1r	2e]	1e
.	.	4d	.
.	.	4c	.
1D	1F	2.B	1f
.	.	4A	.
=40	=40	=40	=40
1C	2G	1.c	1.e
.	2A	.	.
[1E	2G	.	.
.	[2c	4B	2f
.	.	4A	.
=41	=41	=41	=41
1E]	2c]	1G	1g
.	2B	.	.
1F	1A	1D	[1a
=42	=42	=42	=42
0D	1r	2r	2a]
.	.	2D	2g
.	[1d	2.F	1f
.	.	4G	.
=43	=43	=43	=43
0r	2d]	2.A	0e
.	4c	.	.
.	4B	4B	.
.	2c	1A	.
.	4B	.	.
.	4c	.	.
=44	=44	=44	=44
0D	2d	1F	0d
.	2A	.	.
.	4B	1D	.
.	4A	.	.
.	4G	.	.
.	4F	.	.
=45	=45	=45	=45
1C	1E	1r	0r
2BB	1r	1d	.
2D	.	.	.
=46	=46	=46	=46
2E	0r	2c	0r
1D	.	2d	.
.	.	2.A	.
2F	.	.	.
.	.	4B	.
=47	=47	=47	=47
2E	1G	4c	0r
.	.	4d	.
2G	.	2.e	.
1A	1c	.	.
.	.	4c	.
.	.	[2f	.
=48	=48	=48	=48
1G	1B	2f]	1r
.	.	1e	.
1F	1A	.	1a
.	.	2d	.
=49	=49	=49	=49
1E	2B	2e	1g
.	2G	4d	.
.	.	4c	.
1r	1D	4d	1f
.	.	4c	.
.	.	4B	.
.	.	4A	.
=50	=50	=50	=50
1C	1r	2G	1e
.	.	1c	.
1D	1F	.	1r
.	.	2B	.
=51	=51	=51	=51
2C	1G	1c	1c
2E	.	.	.
1F	1A	1r	1d
=52	=52	=52	=52
1E	2G	1r	1e
.	1c	.	.
1D	.	1F	1f
.	2B	.	.
=53	=53	=53	=53
1C	2c	1G	1e
.	2d	.	.
1r	[1e	1E	[1cc
=54	=54	=54	=54
0AA	2e]	1A	2cc]
.	2d	.	2b
.	1c	[1e	[1a
=55	=55	=55	=55
0E	0B	0e]	2a]
.	.	.	2g#i
.	.	.	2g#i
.	.	.	2f#i
=56	=56	=56	=56
1F	[0Al	0c	[0al
1F	.	.	.
=57	=57	=57	=57
0Dl	0A]	0dl	0a]
==	==	==	==
*-	*-	*-	*-
!!!RDF**kern: l=long note in original notation
!!!RDF**kern: i=editorial accidental
!!!ENC:	Chris Gage 09-18-2013
!!!END:	2013/10/23/
!!!EED:	Jesse Rodin
!!!EEV:	2013/12/19/
!!!ONB:	Translated from MusicXML and edited on 2013/12/19/ by Craig Sapp
!!muse2ps: C^@{COM}^i2I150v85,85,85,100Q16
